icon-themes/sifr_svg/cmd/sc_alphaliststyle.svg

<svg viewBox="0 0 16 16" xmlns="http://www.w3.org/2000/svg"><path d="m2 1a1 1 0 0 0 -1 1v4h1v-1h2v1h1v-4a1 1 0 0 0 -1-1zm0 1h2v2h-2zm5 0v2h8v-2zm0 3v2h4v-2zm-6 4v5h1 2c.5522847 0 1-.447715 1-1v-1c0-.552285-.4477153-1-1-1v-1a1 1 0 0 0 -1-1h-1zm1 1h1v1h-1zm5 0v2h8v-2zm-5 2h2v1h-2zm5 1v2h4v-2z" fill="#555753"/></svg>

<svg xmlns="http://www.w3.org/2000/svg" viewBox="0 0 16 16">
  <path
     style="fill:#555753"
     d="M 2 1 A 1 1 0 0 0 1 2 L 1 6 L 2 6 L 2 5 L 4 5 L 4 6 L 5 6 L 5 2 A 1 1 0 0 0 4 1 L 2 1 z M 2 2 L 4 2 L 4 4 L 2 4 L 2 2 z M 7 2 L 7 4 L 15 4 L 15 2 L 7 2 z M 7 5 L 7 7 L 11 7 L 11 5 L 7 5 z M 1 9 L 1 14 L 2 14 L 4 14 C 4.5522847 14 5 13.552285 5 13 L 5 12 C 5 11.447715 4.5522847 11 4 11 L 4 10 A 1 1 0 0 0 3 9 L 2 9 L 1 9 z M 2 10 L 3 10 L 3 11 L 2 11 L 2 10 z M 7 10 L 7 12 L 15 12 L 15 10 L 7 10 z M 2 12 L 4 12 L 4 13 L 2 13 L 2 12 z M 7 13 L 7 15 L 11 15 L 11 13 L 7 13 z "
     />
</svg>
